X:1
T:Bordeaux, CMD
T:Bordeaux, CMD
T:Robert Lowry, 1875
T:Public Domain Courtesy of the Cyber Hymnal™
C:Robert Lowry, 1875
Z:Public Domain
Z:Courtesy of the Cyber Hymnal™
%%score ( 1 2 ) ( 3 4 )
L:1/8
Q:1/4=98
M:3/4
K:D
V:1 treble 
V:2 treble 
V:3 bass 
V:4 bass 
V:1
 [FA]2 | [DF][EG] [FA]3 [DA] | [DB][Dd] [DA]3 [DF] | [CE][DF] [EG]2 [CA]2 | [DF]4 [FA]2 | %5
 [DF][EG] [FA]3 [DA] | [DB][Dd] [DA]3 [Fd] | [Ec][EB] [Ed]2 [E^G]2 | [EA]4 [EA]2 | %9
 [Ec][Ed] [Ee]3 [Ec] | [DB][DA] [DF]3 [EF] | [DF][FB] [Fd]2 ^G2 | [CA]4 [EG]2 | %13
 [DF][EG] [FA]3 [FA] | [GB][Ac] [Bd]3 ([Ac]/[GB]/) | [FA][DF] [CE]2 [CA]2 | D4 |] %17
V:2
 x2 | x6 | x6 | x6 | x6 | x6 | x6 | x6 | x6 | x6 | x6 | x4 (ED) | x6 | x6 | x6 | x6 | D4 |] %17
V:3
 [D,A,]2 | [D,A,][D,A,] [D,A,]3 [D,F,] | [G,,G,][B,,G,] [D,F,]3 [D,A,] | %3
 [A,,A,][A,,A,] [A,,A,]2 [A,,A,]2 | [D,A,]4 [D,D]2 | [D,A,][D,A,] [D,A,]3 [D,F,] | %6
 [G,,G,][B,,G,] [D,F,]3 [D,A,] | [E,A,][E,^G,] [E,B,]2 [E,D]2 | [A,C]4 [A,C]2 | %9
 A,[A,B,] [A,C]3 [A,,A,] | [D,G,][D,F,] [D,A,]3 [C,^A,] | [B,,B,][B,,D] [B,,B,]2 [E,B,]2 | %12
 [A,,A,]4 [A,,A,]2 | [D,A,][D,A,] [D,D]3 [D,D] | [G,D][G,D] [G,D]3 [G,D] | %15
 [D,D][F,A,] A,2 [A,,G,]2 | [D,F,]4 |] %17
V:4
 x2 | x6 | x6 | x6 | x6 | x6 | x6 | x6 | x6 | A, x5 | x6 | x6 | x6 | x6 | x6 | x2 A,2 x2 | x4 |] %17

